X:37
T:Cromdel hill
Z:Jack Campin, Sept 1998
B:MS from Bodleian Library, Oxford, "A Collection of the newest Country Dances Perfor'd in Scotland", 1740, David Young ed.
M:C|
L:1/8
K:G
g   |G2G2 TB>AAg|G/G/G G2 G>ABG|cABG TB>AAb|e/f/g GB d2d:|
e/f/|gedB  c>BAa|gedB     dega |gegB  c>BAb|g/g/g dB d2G:|

